places/scalable/bookmark-missing.svg

<svg xmlns="http://www.w3.org/2000/svg" width="64" height="64" version="1">
 <path fill="#c2352a" d="m32 7 8 17 17 2-12 13 3 18-16-9-16 9 3-18-12-13 17-2z"/>
 <path style="opacity:.2;fill:#ffffff" d="m32 7-8 17-17 2 0.832 0.902 16.168-1.902 8-17 8 17 16.168 1.902 0.832-0.902-17-2zm-13.141 32.848-2.859 17.152 0.184-0.104 2.816-16.896zm26.281 0l-0.14 0.152 2.816 16.896 0.184 0.104z"/>
 <path style="opacity:.2" d="m7.832 26.902-0.832 0.098 11.859 12.848 0.141-0.848zm48.336 0l-11.168 12.098 0.141 0.848 11.859-12.848zm-24.168 21.098-15.816 8.896-0.184 1.104 16-9 16 9-0.184-1.104z"/>
</svg>

<svg xmlns="http://www.w3.org/2000/svg" width="64" height="64" version="1"><path fill="#c2352a" d="M32 7l8 17 17 2-12 13 3 18-16-9-16 9 3-18L7 26l17-2z"/><path d="M32 7l-8 17-17 2 .832.902L24 25l8-17 8 17 16.168 1.902L57 26l-17-2zM18.859 39.848L16 57l.184-.104L19 40zm26.281 0L45 40l2.816 16.896L48 57z" opacity=".2" fill="#fff"/><path d="M7.832 26.902L7 27l11.859 12.848L19 39zm48.336 0L45 39l.141.848L57 27zM32 48l-15.816 8.896L16 58l16-9 16 9-.184-1.104z" opacity=".2"/></svg>
